X: 35651
T: Sailor On The Rock, The
R: reel
M: 4/4
K: Dmajor
|:defd BAFB|ADED FAAB|defd BAFB|1 ABdf eB~B2:|2 ABdf efde||
|:faag fedf|~g3a bgeg|faag fedB|1 ABdf efde:|2 ABdf efdA||

